X:2292
T:Svingedans
T:(SvL Skåne nr. 1029)
T:/Runtenom
T:efter Nils Svensson 
O:Snårestad, Skåne
S:Svenska Låtar Skåne
B:Svenska Låtar Skåne
Z:Åke Persson, 2012-03-20
R:Svingedans
M:3/4
L:1/8
Q:1/4=108
%%printtempo 0
%%MIDI ratio 2 1
K:A
|: A>c e2 g2 | a>f e2 c2 | e>g fe dB | G>B (A2 LA2) :|
|: c>B !tenuto!G2 !tenuto!B2 | d>c !tenuto!A2 !tenuto!c2 | c>c cB GA | B>c (A2 LA2) :|
(:musicend:)

(:music:)
